icons/iconmonstr-menu-thin.svg

<svg width="24" height="24" xmlns="http://www.w3.org/2000/svg" fill-rule="evenodd" clip-rule="evenodd"><path d="M24 18v1h-24v-1h24zm0-6v1h-24v-1h24zm0-6v1h-24v-1h24z" fill="#1040e2"/><path d="M24 19h-24v-1h24v1zm0-6h-24v-1h24v1zm0-6h-24v-1h24v1z"/></svg>

<?xml version="1.0" encoding="utf-8"?>
<!-- Generator: Adobe Illustrator 26.3.1, SVG Export Plug-In . SVG Version: 6.00 Build 0)  -->
<svg version="1.1" id="Camada_1" xmlns="http://www.w3.org/2000/svg" xmlns:xlink="http://www.w3.org/1999/xlink" x="0px" y="0px"
	 viewBox="0 0 24 24" style="enable-background:new 0 0 24 24;" xml:space="preserve">
<style type="text/css">
	.st0{fill-rule:evenodd;clip-rule:evenodd;fill:#FFFFFF;}
</style>
<path class="st0" d="M24,18v1H0v-1H24z M24,12v1H0v-1H24z M24,6v1H0V6H24z"/>
<path class="st0" d="M24,19H0v-1h24V19z M24,13H0v-1h24V13z M24,7H0V6h24V7z"/>
</svg>
